!!!OTL: 698a. Truebsinn.
!!!ODT: 1850
!!!ARE: Europa, Mitteleuropa, Deutschland, Hessen, Frankfurt; Oberhessen
!!!SCT: E0698
!!!TXL: @@DE
!!!YEM: Copyright 1995, estate of Helmut Schaffrath.
**kern	**text
*ICvox	*
*M3/4	*
*k[f#]	*
*G:	*
!LO:TX:a:t=Mäßig.	!
!LO:TX:a:t=Gegend v. Frankfurt u. Oberheſſen 1850.	!
{8d	S'iſt
8d	Al-
8c	-les
=1	=1
8BL	dun-
8dJ	.
8g	-kel,
8b	s'iſt
8b	Al-
8b	-les
=2	=2
8bL	trü-
8ddJ	.
8dd}	-be,
{8dd	die-
8cc	-weil
8b	mein
=3	=3
4a	Schatʒ'
4cc	ein'
8b/	An-
8a	-dern
=4	=4
4g	liebt.
8r}	.
{8g	Jch
8f#	hab
8g	ge-
=5	=5
4.a	-meint,
8a	ſie
8g	lie-
8e	-bet
=6	=6
4d	mich,
8r}	.
{8f#	ich
8f#	hab
8g	ge-
=7	=7
4.a	-meint,
8a	ſie
8g	lie-
8e	-bet
=8	=8
4d	mich
8r}	.
{8d	Ach
8d	nein,
8d	ach
=9	=9
(8BL	nein,
8dJ	.
8g)	.
8b	ach
8b	nein,
8b	ach
=10	=10
(4b	nein,
8dd)}	.
{8dd	ach
8cc	nein,
8b	ach
=11	=11
(<4a	nein,
8cc)	.
8cc	ſie
8b	haſ-
8a	-ſet
=12	=12
4g	mich.
8r}	.
{8d	Ach
8d	nein,
8d	ach
=13	=13
(8BL	nein,
8dJ	.
8g)	.
8b	ach
8b	nein,
8b	ach
=14	=14
(4b	nein,
8dd)}	.
{8dd	ach
8cc	nein,
8b	ach
=15	=15
(<4a	nein,
8cc)	.
8cc	ſie
8b	haſ-
8a	-ſet
=16	=16
4g	mich.
8r}	.
==	==
!!!AGN: Liebes - Lied, Leid, Klage
!!!ONB: ESAC (Essen Associative Code) Database: ERK2
!!!AMT: simple triple
!!!AIN: vox
!!!EED: Helmut Schaffrath
!!!EEV: 1.0
!!!RDF**kern: < = below
!!!GTL: Liebeslieder [Neuere (aus dem 18. bis 19. Jahrh.) - Liebesleid] 678-740
!!!URL-scan: https://rosdok.uni-rostock.de/mcrviewer/recordIdentifier/rosdok_ppn745177662/iview2/phys_0500.iview2?x=193.8995864193107&y=2119.181100489106&scale=0.7029437510502773&rotation=0&layout=singlePageLayout
!!!ENC: Anna Maria Matuszewska
!!!EEV: 2024/12/16
*-	*-
